brandFactory_export/3.Masa/Urgencia urgente sirenta 2 _3Masa.svg

<?xml version="1.0" encoding="UTF-8"?>
<svg width="24px" height="24px" viewBox="0 0 24 24" version="1.1" xmlns="http://www.w3.org/2000/svg" xmlns:xlink="http://www.w3.org/1999/xlink">
    <title>3.Masa/Urgencia urgente sirenta 2 _3Masa</title>
    <g id="Symbols" stroke="none" stroke-width="1" fill="none" fill-rule="evenodd">
        <g id="3.Masa/Urgencia-urgente-sirenta-2-_3Masa" fill="#5CB615" fill-rule="nonzero">
            <path d="M19.8823529,22.1008403 L19.8823529,19.8521008 C19.8184874,19.8117647 19.7478992,19.7882353 19.6739496,19.7882353 L4.05042017,19.7882353 C3.97647059,19.7882353 3.90588235,19.8084034 3.84201681,19.8453782 L3.84201681,22.1109244 C3.90588235,22.1478992 3.97647059,22.1647059 4.05042017,22.1647059 L19.6739496,22.1647059 C19.7478992,22.1647059 19.8218487,22.1411765 19.8823529,22.1008403 L19.8823529,22.1008403 Z M19.6739496,18.3327731 C20.5613445,18.3327731 21.3344538,18.9882353 21.3344538,19.7378151 L21.3344538,22.2218487 C21.3344538,22.9714286 20.5579832,23.6268908 19.6739496,23.6268908 L4.05042017,23.6268908 C3.14957983,23.6268908 2.38991597,22.9848739 2.38991597,22.2218487 L2.38991597,19.7378151 C2.38991597,18.9781513 3.14957983,18.3361345 4.05042017,18.3361345 L4.23193277,18.3361345 L4.23193277,11.4621849 C4.23193277,6.5210084 6.94117647,3.79831933 11.8588235,3.79831933 C16.7798319,3.79831933 19.4890756,6.5210084 19.4890756,11.4621849 L19.4890756,18.3327731 L19.6739496,18.3327731 Z M11.8621849,3.22689076 C11.4621849,3.22689076 11.1361345,2.90084034 11.1361345,2.49747899 L11.1361345,0.729411765 C11.1361345,0.32605042 11.4621849,0 11.8621849,0 C12.2621849,0 12.5882353,0.32605042 12.5882353,0.729411765 L12.5882353,2.49747899 C12.5882353,2.89747899 12.2655462,3.22352941 11.8621849,3.22689076 Z M3.21010979,8.89411765 C3.21010979,9.29411765 2.88739496,9.62016807 2.48403361,9.62352941 L0.72605042,9.62352941 C0.322689076,9.62016807 0,9.29411765 0,8.89411765 C0,8.4907563 0.32605042,8.16470588 0.72605042,8.16470588 L2.48739496,8.16470588 C2.88739496,8.16470588 3.21344538,8.4907563 3.21010979,8.89411765 Z M22.897479,8.19831933 C23.297479,8.19831933 23.6235294,8.52436975 23.6235294,8.92773109 C23.6235294,9.32773109 23.3008403,9.65714286 22.897479,9.65714286 L21.1361345,9.65714286 C20.7361345,9.65714286 20.410084,9.33109244 20.410084,8.92773109 C20.410084,8.52436975 20.7361345,8.19831933 21.1361345,8.19831933 L22.897479,8.19831933 Z M4.21848739,4.56806723 L2.97478992,3.31764706 C2.68907563,3.03193277 2.68907563,2.57142857 2.97478992,2.28571429 C3.25714286,2.00336134 3.71428571,2 3.99663866,2.28235294 L4,2.28571429 L5.24369748,3.53613445 C5.52605042,3.82521008 5.52605042,4.28571429 5.23697479,4.57142857 C5.10252101,4.70588235 4.9210084,4.77983193 4.72941176,4.78319328 C4.53781513,4.77983193 4.35294118,4.70252101 4.21848739,4.56806723 L4.21848739,4.56806723 Z M18.0470588,4.63529412 C17.6436975,4.63193277 17.3210084,4.30252101 17.3243437,3.89915966 C17.3243437,3.70756303 17.4016807,3.52605042 17.5361345,3.39159664 L18.7798319,2.14117647 C19.0621849,1.85882353 19.5193277,1.85546218 19.8016807,2.13781513 L19.805042,2.14117647 C20.087395,2.42689076 20.087395,2.88739496 19.805042,3.1697479 L18.5613445,4.42016807 C18.4235294,4.55798319 18.2386555,4.63529412 18.0470588,4.63529412 L18.0470588,4.63529412 Z" id="Urgencia-urgente-sirenta-2-_3Masa"></path>
        </g>
    </g>
</svg>

<svg width="24" height="24" viewBox="0 0 24 24" xmlns="http://www.w3.org/2000/svg"><path d="M19.882 22.1v-2.248a.39.39 0 00-.208-.064H4.05a.413.413 0 00-.208.057v2.266a.41.41 0 00.208.054h15.624a.38.38 0 00.208-.064zm-.208-3.767c.887 0 1.66.655 1.66 1.405v2.484c0 .75-.776 1.405-1.66 1.405H4.05c-.9 0-1.66-.642-1.66-1.405v-2.484c0-.76.76-1.402 1.66-1.402h.182v-6.874c0-4.941 2.71-7.664 7.627-7.664 4.92 0 7.63 2.723 7.63 7.664v6.87h.185zM11.862 3.227a.728.728 0 01-.726-.73V.73c0-.403.326-.729.726-.729.4 0 .726.326.726.73v1.767a.73.73 0 01-.726.73zM3.21 8.894a.73.73 0 01-.726.73H.726a.73.73 0 010-1.46h1.761c.4 0 .726.327.723.73zm19.687-.696c.4 0 .727.326.727.73 0 .4-.323.73-.727.73h-1.76a.728.728 0 01-.727-.73c0-.404.326-.73.726-.73h1.761zM4.218 4.568l-1.243-1.25a.728.728 0 011.022-1.036L4 2.286l1.244 1.25a.732.732 0 01-.515 1.247.743.743 0 01-.51-.215zm13.83.067a.729.729 0 01-.512-1.243l1.244-1.25a.722.722 0 011.022-.004l.003.003a.73.73 0 010 1.029l-1.244 1.25a.728.728 0 01-.514.215z" fill="#5CB615" fill-rule="nonzero"/></svg>
